X:1
T:Perpetual Motion
C:English
Z:<ClareCello:aol.com> 2004-5-6
M:6/8
R:Jig
L:1/8
K:Bb
F|:"Bb"B3 F3|"F"c2e "Bb" dcB|"F"cde "Bb"f2B|"Cm"BcB "F7"AGF|
"Bb"B3 F3|"F"c2e "Gm"dcB|"Eb"cde "Cm"f2B|"F7"BcA "Bb"B2B:|
|: "F"cde "Bb"f2B|"Eb"e2g "F"fdc|"Gm"Bcd "Eb"e2d|"Cm"cdB "F7"AGF|
"Eb"GAB "Bb"B2F|"Cm"GAB "F7"cde|"Bb7"dfB "Eb"e2d|"Cm"cdB "F7"AGF:|["last time" "F7"cBA "Bb"B2||
